img/icons/try-block/icon-sale.svg

<svg width="100" height="100" viewBox="0 0 100 100" fill="none" xmlns="http://www.w3.org/2000/svg">
<path d="M20.479 33.1462C27.354 31.6878 32.4582 25.542 32.4582 18.2503C32.354 9.81283 25.5832 3.04199 17.2498 3.04199C8.81234 3.04199 2.0415 9.81283 2.0415 18.2503C2.0415 25.3337 6.83317 31.2712 13.3957 32.9378C13.7082 33.042 14.1248 33.1462 14.5415 33.1462H14.854L17.354 37.8337L20.479 33.1462Z" fill="#F9B974" stroke="#C47A2C" stroke-width="0.980392" stroke-miterlimit="10"/>
<path d="M12.875 24.8127L21.1042 11.896" stroke="#C47A2C" stroke-width="0.980392" stroke-miterlimit="10"/>
<path d="M21.521 25.8545C23.0835 25.8545 24.3335 24.6045 24.3335 23.042C24.3335 21.4795 23.0835 20.2295 21.521 20.2295C19.9585 20.2295 18.7085 21.4795 18.7085 23.042C18.7085 24.6045 19.9585 25.8545 21.521 25.8545Z" stroke="#C47A2C" stroke-width="0.980392" stroke-miterlimit="10"/>
<path d="M12.5625 16.792C14.125 16.792 15.375 15.542 15.375 13.9795C15.375 12.417 14.125 11.167 12.5625 11.167C11 11.167 9.75 12.417 9.75 13.9795C9.75 15.542 11 16.792 12.5625 16.792Z" stroke="#C47A2C" stroke-width="0.980392" stroke-miterlimit="10"/>
<path d="M26.2085 49.9165V65.6457M90.7918 49.9165V92.6248H37.8752" stroke="#3B4A58" stroke-width="0.980392"/>
<path d="M75.1665 49.9165H22.0415V37.4165H94.9582V49.9165H80.5832" stroke="#3B4A58" stroke-width="0.980392"/>
<path d="M50.6875 37.4165H64.2292V92.6248H50.6875V37.4165Z" fill="#F9B974" stroke="#C47A2C" stroke-width="0.980392"/>
<path d="M48.8124 22.4163C44.1249 19.9163 35.3749 21.7913 35.5832 29.7079C35.6874 33.1454 38.4999 36.2704 41.9374 37.2079C42.9791 37.5204 44.1249 37.4163 46.5207 37.4163C55.1666 37.4163 57.4582 37.4163 57.4582 37.4163C57.4582 37.4163 53.3957 24.9163 48.8124 22.4163Z" stroke="#3B4A58" stroke-width="0.980392"/>
<path d="M66.1043 22.4163C70.6877 19.9163 79.5418 21.7913 79.3335 29.7079C79.2293 33.1454 76.4168 36.2704 72.9793 37.2079C71.9377 37.5204 70.7918 37.4163 68.396 37.4163C59.7502 37.4163 57.4585 37.4163 57.4585 37.4163C57.4585 37.4163 61.521 24.9163 66.1043 22.4163Z" stroke="#3B4A58" stroke-width="0.980392"/>
<path d="M29.9727 78.5625H26.1647M34.1924 78.5625H39.75V72.3125H5.375V78.5625H18.9603" stroke="#3B4A58" stroke-width="0.980392"/>
<path d="M18.9165 72.3125H26.2082V97.3125H18.9165V72.3125Z" stroke="#3B4A58" stroke-width="0.980392"/>
<path d="M18.7082 65.2425C16.6248 64.0642 12.5623 64.9212 12.6665 68.6703C12.6665 70.2771 14.0207 71.7767 15.5832 72.2052C16.104 72.3123 16.5207 72.3123 17.6665 72.3123C21.5207 72.3123 22.6665 72.3123 22.6665 72.3123C22.6665 72.3123 20.6873 66.3137 18.7082 65.2425Z" stroke="#3B4A58" stroke-width="0.980392"/>
<path d="M26.5208 65.2425C28.6042 64.0642 32.6667 64.9212 32.5625 68.6703C32.5625 70.2771 31.2083 71.7767 29.6458 72.2052C29.125 72.3123 28.7083 72.3123 27.5625 72.3123C23.7083 72.3123 22.5625 72.3123 22.5625 72.3123C22.5625 72.3123 24.4375 66.3137 26.5208 65.2425Z" stroke="#3B4A58" stroke-width="0.980392"/>
<path d="M8.5 78.5625V97.3125H36.625V78.5625" stroke="#3B4A58" stroke-width="0.980392"/>
</svg>

<svg width="100" height="100" fill="none" xmlns="http://www.w3.org/2000/svg"><path d="M20.479 33.146c6.875-1.458 11.98-7.604 11.98-14.896-.105-8.437-6.876-15.208-15.21-15.208A15.16 15.16 0 002.043 18.25c0 7.084 4.791 13.021 11.354 14.688.312.104.729.208 1.145.208h.313l2.5 4.688 3.125-4.688z" fill="#F9B974" stroke="#C47A2C" stroke-width=".98" stroke-miterlimit="10"/><path d="M12.875 24.813l8.23-12.917m.416 13.959a2.8 2.8 0 002.813-2.813 2.8 2.8 0 00-2.813-2.813 2.8 2.8 0 00-2.813 2.813 2.8 2.8 0 002.813 2.813zm-8.958-9.063a2.8 2.8 0 002.812-2.813 2.8 2.8 0 00-2.813-2.812A2.8 2.8 0 009.75 13.98a2.8 2.8 0 002.813 2.812z" stroke="#C47A2C" stroke-width=".98" stroke-miterlimit="10"/><path d="M26.209 49.916v15.73m64.583-15.73v42.709H37.875m37.291-42.709H22.042v-12.5h72.916v12.5H80.583" stroke="#3B4A58" stroke-width=".98"/><path d="M50.688 37.416h13.541v55.209H50.688V37.416z" fill="#F9B974" stroke="#C47A2C" stroke-width=".98"/><path d="M48.812 22.416c-4.687-2.5-13.437-.625-13.229 7.292.104 3.437 2.917 6.562 6.354 7.5 1.042.312 2.188.208 4.584.208h10.937s-4.062-12.5-8.646-15zm17.292 0c4.584-2.5 13.438-.625 13.23 7.292-.105 3.437-2.917 6.562-6.355 7.5-1.041.312-2.187.208-4.583.208H57.458s4.063-12.5 8.646-15zM29.973 78.563h-3.808m8.027 0h5.558v-6.25H5.375v6.25H18.96" stroke="#3B4A58" stroke-width=".98"/><path d="M18.916 72.313h7.292v25h-7.291v-25zm-.208-7.07c-2.083-1.179-6.146-.322-6.041 3.427 0 1.607 1.354 3.107 2.916 3.535.521.107.938.107 2.083.107h5s-1.979-5.998-3.958-7.07z" stroke="#3B4A58" stroke-width=".98"/><path d="M26.52 65.243c2.084-1.179 6.147-.322 6.043 3.427 0 1.607-1.355 3.107-2.917 3.535-.521.107-.938.107-2.084.107h-5s1.875-5.998 3.959-7.07zM8.5 78.563v18.75h28.125v-18.75" stroke="#3B4A58" stroke-width=".98"/></svg>
